icons/evolvere-blue-folders-flat-vivid-dark-fallback/apps/64/bitwig-studio.svg

<?xml version="1.0" encoding="UTF-8" standalone="no"?>
<!-- Created with Inkscape (http://www.inkscape.org/) -->

<svg
   xmlns:dc="http://purl.org/dc/elements/1.1/"
   xmlns:cc="http://creativecommons.org/ns#"
   xmlns:rdf="http://www.w3.org/1999/02/22-rdf-syntax-ns#"
   xmlns:svg="http://www.w3.org/2000/svg"
   xmlns="http://www.w3.org/2000/svg"
   xmlns:sodipodi="http://sodipodi.sourceforge.net/DTD/sodipodi-0.dtd"
   xmlns:inkscape="http://www.inkscape.org/namespaces/inkscape"
   width="64"
   height="64"
   id="svg13094"
   version="1.1"
   inkscape:version="0.91+devel r"
   sodipodi:docname="bitwig-studio.svg">
  <sodipodi:namedview
     id="base"
     pagecolor="#ffffff"
     bordercolor="#666666"
     borderopacity="1.0"
     inkscape:pageopacity="0"
     inkscape:pageshadow="2"
     inkscape:zoom="11.313708"
     inkscape:cx="34.812445"
     inkscape:cy="32.352733"
     inkscape:document-units="px"
     inkscape:current-layer="svg13094"
     showgrid="true"
     inkscape:snap-bbox="true"
     inkscape:bbox-paths="true"
     inkscape:bbox-nodes="true"
     inkscape:snap-bbox-edge-midpoints="true"
     inkscape:snap-bbox-midpoints="true"
     inkscape:object-paths="true"
     inkscape:snap-intersection-paths="true"
     inkscape:object-nodes="true"
     inkscape:snap-smooth-nodes="true"
     inkscape:snap-midpoints="true"
     inkscape:snap-object-midpoints="true"
     inkscape:snap-center="true"
     showguides="true"
     inkscape:guide-bbox="true"
     inkscape:window-width="1920"
     inkscape:window-height="1023"
     inkscape:window-x="-10"
     inkscape:window-y="35"
     inkscape:window-maximized="1"
     inkscape:snap-global="true"
     fit-margin-top="0"
     fit-margin-left="0"
     fit-margin-right="0"
     fit-margin-bottom="0"
     showborder="true"
     inkscape:showpageshadow="false"
     inkscape:snap-page="true">
    <inkscape:grid
       type="xygrid"
       id="grid3075"
       empspacing="5"
       visible="true"
       enabled="true"
       snapvisiblegridlinesonly="true"
       originx="1.6362304e-08px"
       originy="18px" />
  </sodipodi:namedview>
  <defs
     id="defs13096" />
  <metadata
     id="metadata13099">
    <rdf:RDF>
      <cc:Work
         rdf:about="">
        <dc:format>image/svg+xml</dc:format>
        <dc:type
           rdf:resource="http://purl.org/dc/dcmitype/StillImage" />
        <dc:title></dc:title>
      </cc:Work>
    </rdf:RDF>
  </metadata>
  <path
     inkscape:connector-curvature="0"
     style="color:#000000;fill:#ce3053;fill-opacity:1;fill-rule:nonzero;stroke:none;stroke-width:2.28571415;marker:none;visibility:visible;display:inline;overflow:visible;enable-background:accumulate"
     d="m 0,4 0,30 0,28 2,2 30,0 30,0 2,-2 L 64,34 64,4 32,4 0,4 z"
     id="path4095" />
  <path
     inkscape:connector-curvature="0"
     style="color:#000000;fill:#ff698a;fill-opacity:1;fill-rule:nonzero;stroke:none;stroke-width:2.28571415000000000;marker:none;visibility:visible;display:inline;overflow:visible;enable-background:accumulate"
     d="M 2,0 0,1 0,4 32,4 64,4 64,1 62,0 32,0 2,0 z"
     id="path4090" />
  <path
     style="fill:#ff8aa4;fill-opacity:1;fill-rule:nonzero"
     d="M 0,3 0,6 2,4 Z"
     id="path4298"
     inkscape:connector-curvature="0"
     sodipodi:nodetypes="cccc" />
  <path
     d="M 64,6 62,4 64,3 z"
     id="path3028"
     style="fill:#e64c6e;fill-opacity:1"
     inkscape:connector-curvature="0" />
  <g
     id="g3043"
     inkscape:export-filename="folder.png"
     inkscape:export-xdpi="90"
     inkscape:export-ydpi="90"
     transform="translate(-0.62500009,0.082283)" />
  <g
     id="scalable"
     transform="matrix(1.0385892,0,0,1.0385892,1214.7222,1878.8121)"
     inkscape:label="#g3701"
     style="fill:#ffffff" />
  <path
     style="color:#000000;fill:#ffe3e9;fill-opacity:1;fill-rule:nonzero;stroke:none;stroke-width:2;marker:none;visibility:visible;display:inline;overflow:visible;enable-background:accumulate"
     d="m 21.5,24.5 c -1.380712,0 -2.5,1.119288 -2.5,2.5 0,1.380712 1.119288,2.5 2.5,2.5 1.380712,0 2.5,-1.119288 2.5,-2.5 0,-1.380712 -1.119288,-2.5 -2.5,-2.5 z m 7,0 c -1.380712,0 -2.5,1.119288 -2.5,2.5 0,1.380712 1.119288,2.5 2.5,2.5 1.380712,0 2.5,-1.119288 2.5,-2.5 0,-1.380712 -1.119288,-2.5 -2.5,-2.5 z m 7,0 c -1.380712,0 -2.5,1.119288 -2.5,2.5 0,1.380712 1.119288,2.5 2.5,2.5 1.380712,0 2.5,-1.119288 2.5,-2.5 0,-1.380712 -1.119288,-2.5 -2.5,-2.5 z m 7,0 c -1.380712,0 -2.5,1.119288 -2.5,2.5 0,1.380712 1.119288,2.5 2.5,2.5 1.380712,0 2.5,-1.119288 2.5,-2.5 0,-1.380712 -1.119288,-2.5 -2.5,-2.5 z m -28,7 c -1.380712,0 -2.5,1.119288 -2.5,2.5 0,1.380712 1.119288,2.5 2.5,2.5 1.380712,0 2.5,-1.119288 2.5,-2.5 0,-1.380712 -1.119288,-2.5 -2.5,-2.5 z m 7,0 c -1.380712,0 -2.5,1.119288 -2.5,2.5 0,1.380712 1.119288,2.5 2.5,2.5 1.380712,0 2.5,-1.119288 2.5,-2.5 0,-1.380712 -1.119288,-2.5 -2.5,-2.5 z m 7,0 c -1.380712,0 -2.5,1.119288 -2.5,2.5 0,1.380712 1.119288,2.5 2.5,2.5 1.380712,0 2.5,-1.119288 2.5,-2.5 0,-1.380712 -1.119288,-2.5 -2.5,-2.5 z m 7,0 c -1.380712,0 -2.5,1.119288 -2.5,2.5 0,1.380712 1.119288,2.5 2.5,2.5 1.380712,0 2.5,-1.119288 2.5,-2.5 0,-1.380712 -1.119288,-2.5 -2.5,-2.5 z m 7,0 c -1.380712,0 -2.5,1.119288 -2.5,2.5 0,1.380712 1.119288,2.5 2.5,2.5 1.380712,0 2.5,-1.119288 2.5,-2.5 0,-1.380712 -1.119288,-2.5 -2.5,-2.5 z m 7,0 c -1.380712,0 -2.5,1.119288 -2.5,2.5 0,1.380712 1.119288,2.5 2.5,2.5 1.380712,0 2.5,-1.119288 2.5,-2.5 0,-1.380712 -1.119288,-2.5 -2.5,-2.5 z m -35,7 c -1.380712,0 -2.5,1.119288 -2.5,2.5 0,1.380712 1.119288,2.5 2.5,2.5 1.380712,0 2.5,-1.119288 2.5,-2.5 0,-1.380712 -1.119288,-2.5 -2.5,-2.5 z m 7,0 c -1.380712,0 -2.5,1.119288 -2.5,2.5 0,1.380712 1.119288,2.5 2.5,2.5 1.380712,0 2.5,-1.119288 2.5,-2.5 0,-1.380712 -1.119288,-2.5 -2.5,-2.5 z m 21,0 c -1.380712,0 -2.5,1.119288 -2.5,2.5 0,1.380712 1.119288,2.5 2.5,2.5 1.380712,0 2.5,-1.119288 2.5,-2.5 0,-1.380712 -1.119288,-2.5 -2.5,-2.5 z m 7,0 c -1.380712,0 -2.5,1.119288 -2.5,2.5 0,1.380712 1.119288,2.5 2.5,2.5 1.380712,0 2.5,-1.119288 2.5,-2.5 0,-1.380712 -1.119288,-2.5 -2.5,-2.5 z"
     id="path3960"
     inkscape:connector-curvature="0" />
  <path
     style="color:#000000;fill:#5d0016;fill-opacity:0.15116279;fill-rule:nonzero;stroke:none;stroke-width:1.06597185;marker:none;visibility:visible;display:inline;overflow:visible;enable-background:accumulate"
     d="M 23.6875 25.8125 C 23.879931 26.166733 24 26.568528 24 27 C 24 28.380712 22.880712 29.5 21.5 29.5 C 21.068528 29.5 20.666733 29.379931 20.3125 29.1875 C 20.735848 29.966813 21.550761 30.5 22.5 30.5 C 23.880712 30.5 25 29.380712 25 28 C 25 27.05076 24.466813 26.235848 23.6875 25.8125 z M 30.6875 25.8125 C 30.879931 26.166733 31 26.568528 31 27 C 31 28.380712 29.880712 29.5 28.5 29.5 C 28.068528 29.5 27.666733 29.379931 27.3125 29.1875 C 27.735848 29.966813 28.550761 30.5 29.5 30.5 C 30.880712 30.5 32 29.380712 32 28 C 32 27.05076 31.466813 26.235848 30.6875 25.8125 z M 37.6875 25.8125 C 37.879931 26.166733 38 26.568528 38 27 C 38 28.380712 36.880712 29.5 35.5 29.5 C 35.068528 29.5 34.666733 29.379931 34.3125 29.1875 C 34.735848 29.966813 35.55076 30.5 36.5 30.5 C 37.880712 30.5 39 29.380712 39 28 C 39 27.05076 38.466813 26.235848 37.6875 25.8125 z M 44.6875 25.8125 C 44.879931 26.166733 45 26.568528 45 27 C 45 28.380712 43.880712 29.5 42.5 29.5 C 42.068528 29.5 41.666733 29.379931 41.3125 29.1875 C 41.735848 29.966813 42.55076 30.5 43.5 30.5 C 44.880712 30.5 46 29.380712 46 28 C 46 27.05076 45.466813 26.235848 44.6875 25.8125 z M 16.6875 32.8125 C 16.879931 33.166733 17 33.568528 17 34 C 17 35.380712 15.880712 36.5 14.5 36.5 C 14.068528 36.5 13.666733 36.379931 13.3125 36.1875 C 13.735848 36.966813 14.55076 37.5 15.5 37.5 C 16.880712 37.5 18 36.380712 18 35 C 18 34.05076 17.466813 33.235848 16.6875 32.8125 z M 23.6875 32.8125 C 23.879931 33.166733 24 33.568528 24 34 C 24 35.380712 22.880712 36.5 21.5 36.5 C 21.068528 36.5 20.666733 36.379931 20.3125 36.1875 C 20.735848 36.966813 21.550761 37.5 22.5 37.5 C 23.880712 37.5 25 36.380712 25 35 C 25 34.05076 24.466813 33.235848 23.6875 32.8125 z M 30.6875 32.8125 C 30.879931 33.166733 31 33.568528 31 34 C 31 35.380712 29.880712 36.5 28.5 36.5 C 28.068528 36.5 27.666733 36.379931 27.3125 36.1875 C 27.735848 36.966813 28.550761 37.5 29.5 37.5 C 30.880712 37.5 32 36.380712 32 35 C 32 34.05076 31.466813 33.235848 30.6875 32.8125 z M 37.6875 32.8125 C 37.879931 33.166733 38 33.568528 38 34 C 38 35.380712 36.880712 36.5 35.5 36.5 C 35.068528 36.5 34.666733 36.379931 34.3125 36.1875 C 34.735848 36.966813 35.55076 37.5 36.5 37.5 C 37.880712 37.5 39 36.380712 39 35 C 39 34.05076 38.466813 33.235848 37.6875 32.8125 z M 44.6875 32.8125 C 44.879931 33.166733 45 33.568528 45 34 C 45 35.380712 43.880712 36.5 42.5 36.5 C 42.068528 36.5 41.666733 36.379931 41.3125 36.1875 C 41.735848 36.966813 42.55076 37.5 43.5 37.5 C 44.880712 37.5 46 36.380712 46 35 C 46 34.05076 45.466813 33.235848 44.6875 32.8125 z M 51.6875 32.8125 C 51.879931 33.166733 52 33.568528 52 34 C 52 35.380712 50.880712 36.5 49.5 36.5 C 49.068527 36.5 48.666733 36.379931 48.3125 36.1875 C 48.735848 36.966813 49.55076 37.5 50.5 37.5 C 51.880712 37.5 53 36.380712 53 35 C 53 34.05076 52.466813 33.235848 51.6875 32.8125 z M 16.6875 39.8125 C 16.879931 40.166733 17 40.568528 17 41 C 17 42.380712 15.880712 43.5 14.5 43.5 C 14.068528 43.5 13.666733 43.379931 13.3125 43.1875 C 13.735848 43.966813 14.55076 44.5 15.5 44.5 C 16.880712 44.5 18 43.380712 18 42 C 18 41.05076 17.466813 40.235848 16.6875 39.8125 z M 23.6875 39.8125 C 23.879931 40.166733 24 40.568528 24 41 C 24 42.380712 22.880712 43.5 21.5 43.5 C 21.068528 43.5 20.666733 43.379931 20.3125 43.1875 C 20.735848 43.966813 21.550761 44.5 22.5 44.5 C 23.880712 44.5 25 43.380712 25 42 C 25 41.05076 24.466813 40.235848 23.6875 39.8125 z M 44.6875 39.8125 C 44.879931 40.166733 45 40.568528 45 41 C 45 42.380712 43.880712 43.5 42.5 43.5 C 42.068528 43.5 41.666733 43.379931 41.3125 43.1875 C 41.735848 43.966813 42.55076 44.5 43.5 44.5 C 44.880712 44.5 46 43.380712 46 42 C 46 41.05076 45.466813 40.235848 44.6875 39.8125 z M 51.6875 39.8125 C 51.879931 40.166733 52 40.568528 52 41 C 52 42.380712 50.880712 43.5 49.5 43.5 C 49.068527 43.5 48.666733 43.379931 48.3125 43.1875 C 48.735848 43.966813 49.55076 44.5 50.5 44.5 C 51.880712 44.5 53 43.380712 53 42 C 53 41.05076 52.466813 40.235848 51.6875 39.8125 z "
     id="path3927" />
</svg>

<svg xmlns="http://www.w3.org/2000/svg" viewBox="0 0 64 64"><g color="#000"><path d="m0 4v30 28l2 2h30 30l2-2v-28-30h-32-32" fill="#ce3053"/><path d="m2 0l-2 1v3h32 32v-3l-2-1h-30-30" fill="#ff698a"/></g><path d="m0 3v3l2-2" fill="#ff8aa4"/><path d="m64 6l-2-2 2-1z" fill="#e64c6e"/><g color="#000"><path d="m21.5 24.5c-1.381 0-2.5 1.119-2.5 2.5 0 1.381 1.119 2.5 2.5 2.5 1.381 0 2.5-1.119 2.5-2.5 0-1.381-1.119-2.5-2.5-2.5m7 0c-1.381 0-2.5 1.119-2.5 2.5 0 1.381 1.119 2.5 2.5 2.5 1.381 0 2.5-1.119 2.5-2.5 0-1.381-1.119-2.5-2.5-2.5m7 0c-1.381 0-2.5 1.119-2.5 2.5 0 1.381 1.119 2.5 2.5 2.5 1.381 0 2.5-1.119 2.5-2.5 0-1.381-1.119-2.5-2.5-2.5m7 0c-1.381 0-2.5 1.119-2.5 2.5 0 1.381 1.119 2.5 2.5 2.5 1.381 0 2.5-1.119 2.5-2.5 0-1.381-1.119-2.5-2.5-2.5m-28 7c-1.381 0-2.5 1.119-2.5 2.5 0 1.381 1.119 2.5 2.5 2.5 1.381 0 2.5-1.119 2.5-2.5 0-1.381-1.119-2.5-2.5-2.5m7 0c-1.381 0-2.5 1.119-2.5 2.5 0 1.381 1.119 2.5 2.5 2.5 1.381 0 2.5-1.119 2.5-2.5 0-1.381-1.119-2.5-2.5-2.5m7 0c-1.381 0-2.5 1.119-2.5 2.5 0 1.381 1.119 2.5 2.5 2.5 1.381 0 2.5-1.119 2.5-2.5 0-1.381-1.119-2.5-2.5-2.5m7 0c-1.381 0-2.5 1.119-2.5 2.5 0 1.381 1.119 2.5 2.5 2.5 1.381 0 2.5-1.119 2.5-2.5 0-1.381-1.119-2.5-2.5-2.5m7 0c-1.381 0-2.5 1.119-2.5 2.5 0 1.381 1.119 2.5 2.5 2.5 1.381 0 2.5-1.119 2.5-2.5 0-1.381-1.119-2.5-2.5-2.5m7 0c-1.381 0-2.5 1.119-2.5 2.5 0 1.381 1.119 2.5 2.5 2.5 1.381 0 2.5-1.119 2.5-2.5 0-1.381-1.119-2.5-2.5-2.5m-35 7c-1.381 0-2.5 1.119-2.5 2.5 0 1.381 1.119 2.5 2.5 2.5 1.381 0 2.5-1.119 2.5-2.5 0-1.381-1.119-2.5-2.5-2.5m7 0c-1.381 0-2.5 1.119-2.5 2.5 0 1.381 1.119 2.5 2.5 2.5 1.381 0 2.5-1.119 2.5-2.5 0-1.381-1.119-2.5-2.5-2.5m21 0c-1.381 0-2.5 1.119-2.5 2.5 0 1.381 1.119 2.5 2.5 2.5 1.381 0 2.5-1.119 2.5-2.5 0-1.381-1.119-2.5-2.5-2.5m7 0c-1.381 0-2.5 1.119-2.5 2.5 0 1.381 1.119 2.5 2.5 2.5 1.381 0 2.5-1.119 2.5-2.5 0-1.381-1.119-2.5-2.5-2.5" fill="#ffe3e9"/><path d="m23.688 25.813c.192.354.313.756.313 1.188 0 1.381-1.119 2.5-2.5 2.5-.431 0-.833-.12-1.188-.313.423.779 1.238 1.313 2.188 1.313 1.381 0 2.5-1.119 2.5-2.5 0-.949-.533-1.764-1.313-2.188m7 0c.192.354.313.756.313 1.188 0 1.381-1.119 2.5-2.5 2.5-.431 0-.833-.12-1.188-.313.423.779 1.238 1.313 2.188 1.313 1.381 0 2.5-1.119 2.5-2.5 0-.949-.533-1.764-1.313-2.188m7 0c.192.354.313.756.313 1.188 0 1.381-1.119 2.5-2.5 2.5-.431 0-.833-.12-1.188-.313.423.779 1.238 1.313 2.188 1.313 1.381 0 2.5-1.119 2.5-2.5 0-.949-.533-1.764-1.313-2.188m7 0c.192.354.313.756.313 1.188 0 1.381-1.119 2.5-2.5 2.5-.431 0-.833-.12-1.188-.313.423.779 1.238 1.313 2.188 1.313 1.381 0 2.5-1.119 2.5-2.5 0-.949-.533-1.764-1.313-2.188m-28 7c.192.354.313.756.313 1.188 0 1.381-1.119 2.5-2.5 2.5-.431 0-.833-.12-1.188-.313.423.779 1.238 1.313 2.188 1.313 1.381 0 2.5-1.119 2.5-2.5 0-.949-.533-1.764-1.313-2.188m7 0c.192.354.313.756.313 1.188 0 1.381-1.119 2.5-2.5 2.5-.431 0-.833-.12-1.188-.313.423.779 1.238 1.313 2.188 1.313 1.381 0 2.5-1.119 2.5-2.5 0-.949-.533-1.764-1.313-2.188m7 0c.192.354.313.756.313 1.188 0 1.381-1.119 2.5-2.5 2.5-.431 0-.833-.12-1.188-.313.423.779 1.238 1.313 2.188 1.313 1.381 0 2.5-1.119 2.5-2.5 0-.949-.533-1.764-1.313-2.188m7 0c.192.354.313.756.313 1.188 0 1.381-1.119 2.5-2.5 2.5-.431 0-.833-.12-1.188-.313.423.779 1.238 1.313 2.188 1.313 1.381 0 2.5-1.119 2.5-2.5 0-.949-.533-1.764-1.313-2.188m7 0c.192.354.313.756.313 1.188 0 1.381-1.119 2.5-2.5 2.5-.431 0-.833-.12-1.188-.313.423.779 1.238 1.313 2.188 1.313 1.381 0 2.5-1.119 2.5-2.5 0-.949-.533-1.764-1.313-2.188m7 0c.192.354.313.756.313 1.188 0 1.381-1.119 2.5-2.5 2.5-.431 0-.833-.12-1.188-.313.423.779 1.238 1.313 2.188 1.313 1.381 0 2.5-1.119 2.5-2.5 0-.949-.533-1.764-1.313-2.188m-35 7c.192.354.313.756.313 1.188 0 1.381-1.119 2.5-2.5 2.5-.431 0-.833-.12-1.188-.313.423.779 1.238 1.313 2.188 1.313 1.381 0 2.5-1.119 2.5-2.5 0-.949-.533-1.764-1.313-2.188m7 0c.192.354.313.756.313 1.188 0 1.381-1.119 2.5-2.5 2.5-.431 0-.833-.12-1.188-.313.423.779 1.238 1.313 2.188 1.313 1.381 0 2.5-1.119 2.5-2.5 0-.949-.533-1.764-1.313-2.188m21 0c.192.354.313.756.313 1.188 0 1.381-1.119 2.5-2.5 2.5-.431 0-.833-.12-1.188-.313.423.779 1.238 1.313 2.188 1.313 1.381 0 2.5-1.119 2.5-2.5 0-.949-.533-1.764-1.313-2.188m7 0c.192.354.313.756.313 1.188 0 1.381-1.119 2.5-2.5 2.5-.431 0-.833-.12-1.188-.313.423.779 1.238 1.313 2.188 1.313 1.381 0 2.5-1.119 2.5-2.5 0-.949-.533-1.764-1.313-2.188" fill="#5d0016" fill-opacity=".151"/></g></svg>
